X:1
T:The Rakes of Poverty
M:6/8
L:1/4
K:G
G/4-A/4| B D/2 D D/2| G- A/2 B G/2| A G/2 G G/2| G3/2- G B/2| d d/2 Gc/4-d/4|\
 e- e/2 d e/2| G G/2 A G/2| E3/2- E B/2| d d/2 Gc/4-d/4| e- e/2 d e/2|\
 G G/2 A G/2| E3/2- E G/4A/4| B D/2 D D/2| G A/2 B G/4G/4| A/2A/2G/2 G G/2|\
 G3/2- G||

